src/images/ico/match-bg.svg

<svg width="177" height="212" viewBox="0 0 177 212" fill="none" xmlns="http://www.w3.org/2000/svg">
<path opacity="0.03" fill-rule="evenodd" clip-rule="evenodd" d="M83.9089 16.583L92.8623 14.3317C93.5538 14.2291 94.1916 14.1561 94.8842 14.1486L95.6144 14.2582L96.3314 14.5435L96.9447 14.9591L97.9664 16.0221C98.6344 16.9802 99.206 17.9272 99.7396 18.9594C100.49 20.5104 101.109 22.091 101.681 23.71C101.893 24.3088 102.103 24.909 102.313 25.5001C102.58 26.5531 102.729 27.5249 102.783 28.6015C102.791 29.7889 102.694 30.9264 102.524 32.0935C102.021 35.1219 101.231 38.0983 100.589 41.09C100.244 42.7403 100.07 43.7122 99.8018 45.3717C98.3283 44.7613 95.413 44.5041 92.909 44.5519C93.1165 42.2576 92.6246 39.8863 92.4144 37.5525C92.2818 36.3954 92.1157 35.2492 91.9051 34.097C91.5517 32.3699 91.1104 30.707 90.5662 29.0249C89.9819 27.3511 89.3224 25.7447 88.5504 24.1383C87.7399 22.5325 86.8624 21.0046 85.8733 19.4854L83.9089 16.583ZM49.7163 146.238C47.7828 141.908 54.8808 137.402 51.3854 135.782C37.915 129.31 64.0619 132.388 67.3921 136.456C57.3517 131.465 51.9686 147.207 51.6006 151.062C51.6534 149.351 50.0523 146.991 49.7163 146.238ZM34.9914 109.854C36.5379 115.03 37.9244 116.965 41.7945 121.814C46.6834 127.94 51.0751 129.204 56.0483 130.703C58.1709 131.343 66.3249 132.717 71.7041 135.743C69.6817 133.915 65.4802 131.651 60.113 129.123C54.0346 126.259 49.2513 122.744 44.8006 116.198C40.88 109.351 40.2115 100.555 36.8824 91.6171C34.0385 91.7866 34.978 102.363 34.9914 109.854ZM98.9315 202.594L99.7231 201.952L100.788 201.315C102.091 200.684 103.427 200.148 104.754 199.556L105.587 199.12L106.329 198.632L107.321 197.719L107.918 196.965C108.923 195.463 109.512 193.902 109.977 192.165C110.185 191.31 110.355 190.436 110.531 189.565L112.774 188.719C113.329 188.431 113.82 188.129 114.337 187.764L115.345 186.928C116.079 186.238 116.741 185.498 117.408 184.736C119.152 182.623 120.731 180.421 122.169 178.086C122.701 177.168 123.212 176.239 123.699 175.29C124.797 173.008 125.904 170.638 126.333 168.122L126.399 167.26L126.293 165.526L125.904 163.767L125.283 161.983L124.4 159.904L127.074 157.398C127.518 156.748 127.87 156.124 128.184 155.396C128.448 154.631 128.606 153.913 128.725 153.108L128.696 151.345C128.602 150.431 128.466 149.56 128.278 148.658C127.765 146.606 127.087 144.602 126.451 142.581L135.385 145.28C134.11 142.008 132.84 138.731 131.587 135.452C131.038 134.004 130.54 132.576 130.182 131.067C130.019 130.254 129.913 129.467 129.86 128.633C129.819 125.825 130.65 123.048 131.394 120.348C131.701 119.231 131.988 118.104 132.255 116.969C132.811 116.328 133.338 115.696 133.84 115.004C134.495 114.032 135.06 113.047 135.589 111.995C136.995 109.009 138.05 105.865 138.843 102.665C139.197 101.154 139.46 99.6639 139.599 98.1107L139.69 96.7933C141.392 95.2704 143.16 93.8048 144.83 92.2407L146.705 88.5975L148.278 84.5164L148.497 83.0982L148.607 80.8212L152.278 80.2185L155.356 79.3436L158.254 78.102C159.184 77.6061 160.063 77.0896 160.953 76.5121L162.632 75.2687C163.613 74.4422 164.54 73.6014 165.397 72.634L166.341 71.5245C168.557 68.8334 170.616 65.9787 172.342 62.947C173.044 61.6647 173.701 60.3753 174.318 59.0438C174.887 57.7253 175.393 56.4151 175.843 55.0451L176.393 53.0136C176.775 51.1895 177.08 49.3034 176.981 47.4288C176.798 45.4128 176.233 43.5141 175.642 41.5792C173.22 42.516 170.775 43.4061 168.42 44.4689C166.187 45.4935 163.974 46.5427 161.693 47.4452C160.155 48.0152 158.65 48.4852 157.059 48.8625L156.04 49.0665C155.045 49.1899 154.076 49.2771 153.079 49.3248L151.167 49.3084C150.183 49.2469 149.225 49.1511 148.25 49.0237C145.948 48.6113 144.107 49.0638 141.82 49.6139L138.395 50.51C138.642 48.8675 138.918 47.2309 139.088 45.5758C139.23 43.8723 139.253 42.1967 139.173 40.4836C139.058 38.774 138.848 37.0974 138.534 35.4065C138.144 33.4602 137.646 31.5631 137.036 29.6666C136.718 28.7238 136.38 27.7833 136.022 26.8477C134.702 23.518 133.063 20.2971 131.193 17.2296C128.941 13.6281 125.912 10.5821 122.581 7.93474C121.117 6.81922 119.626 5.80123 118.055 4.84602C109.285 -0.276572 104.533 -1.20559 95.0921 1.43455L92.5663 2.41793L91.3713 3.00419L90.2312 3.65205L89.149 4.36546L88.1371 5.14587L87.1886 5.99708L86.3171 6.9157C85.7113 7.66978 85.0929 8.42294 84.6578 9.28495C83.8214 11.0926 83.2156 13.034 82.5543 14.8989C81.3 13.7767 80.0753 12.6255 78.7389 11.5868C77.4712 10.6615 76.169 9.85594 74.7851 9.09962C72.9222 8.12007 70.9761 7.17842 68.986 6.45936C67.1777 5.82163 65.3476 5.24564 63.5 4.70992C60.5175 4.0052 57.5239 3.44027 54.4769 3.03433C53.7755 2.94233 53.0734 2.85901 52.3636 2.77556C49.5384 2.57154 46.7044 2.41793 43.8632 2.50243C41.6552 2.58523 39.4671 2.74923 37.2653 2.99879C26.8617 4.31004 20.4607 6.97269 13.2913 15.0737C22.574 13.208 30.724 14.4195 39.6278 16.7091C41.6746 17.4024 43.6309 18.202 45.572 19.1283L46.3743 19.5292C51.4013 22.652 55.9531 26.2135 56.1061 32.7982C56.4576 35.6363 55.2186 37.3052 53.5856 42.0202C53.2995 42.884 53.0558 43.7324 52.8468 44.6121L52.499 46.5327L49.7408 47.6774C48.8541 48.1259 48.0028 48.5997 47.1494 49.117C46.0112 49.8596 44.9244 50.6527 43.8317 51.4622C42.8454 51.0233 41.8587 50.5819 40.8558 50.1673C38.6754 49.2985 36.484 48.5937 34.188 48.0602C31.6765 47.5221 29.1333 47.1745 26.5519 47.2155C25.9043 47.2649 25.2605 47.3214 24.6179 47.4606C23.8329 47.6279 23.0433 47.8133 22.2581 47.9949L20.6836 47.8513L19.2427 47.5763L17.772 47.1745L16.2771 46.66L14.7732 46.0534L11.8089 44.6137L9.02775 42.9558L7.75509 42.0745L6.58541 41.1772L5.53274 40.2602L4.61621 39.3312L4.15457 38.7503C3.54993 39.2746 3.05648 39.9136 2.61029 40.573C-4.21545 54.3173 3.4641 69.9089 12.7734 79.1357C14.6809 81.0696 16.6423 82.9402 18.6512 84.7643C21.4686 87.2987 24.361 89.7909 27.517 91.8964L29.1598 92.9241L29.0623 104.877L29.2154 108.915C29.1598 109.887 29.0608 110.83 28.9166 111.788C28.526 114.019 27.9076 116.15 27.227 118.301L26.8158 119.589C25.6472 122.897 24.1337 126.066 22.7842 129.3C22.239 130.675 21.7344 132.049 21.2662 133.449L20.5179 136.23L20.255 137.609L20.0778 138.97L19.9964 140.314L20.0194 141.63L20.1521 142.925L20.4074 144.19L20.7919 145.431L21.3107 146.638C23.3619 149.946 25.0764 150.68 28.8726 151.824C27.7078 154.465 26.0038 156.885 23.7629 159.103C26.9463 159.373 30.1387 159.738 33.3281 159.82C34.1793 159.812 34.9914 159.773 35.8326 159.685L36.6176 159.556L39.18 158.938L39.9249 161.531L40.1186 162.486L40.2287 163.43L40.2209 165.254C40.1235 166.029 40.0073 166.751 39.8023 167.5C40.8625 166.826 41.9123 166.131 42.9377 165.407C44.0305 164.594 45.0499 163.758 46.053 162.842L49.0972 159.59C49.8607 160.696 50.5668 161.838 51.4686 162.83C51.8706 163.217 52.2663 163.559 52.7042 163.895C56.5396 166.578 62.7084 170.525 66.809 172.483C65.9006 173.833 65.5699 173.778 64.7633 175.189C64.4068 175.861 64.1576 176.534 63.9589 177.261C63.7235 178.32 63.6729 179.282 63.7291 180.359C63.8011 181.182 63.9143 181.992 64.0612 182.802C64.2577 183.422 64.293 183.976 64.2852 184.614C64.2197 185.349 64.0777 185.998 63.8995 186.713L62.3589 188.386C61.872 189.098 61.4534 189.794 61.0539 190.557C60.7112 191.327 60.4318 192.069 60.1813 192.869C59.9799 193.68 59.8319 194.46 59.7198 195.285L59.6135 196.953C59.6197 198.555 59.6806 200.252 60.0965 201.801C60.649 203.666 61.3473 205.464 62.4377 207.101C62.8156 205.68 63.3492 204.377 64.0331 203.087L64.9086 201.815C65.3476 201.319 65.7761 200.895 66.2863 200.47L67.1287 199.885L71.6902 197.035L70.3065 202.598L70.1585 203.612L70.1185 204.538L70.175 205.388L70.3131 206.171L70.5266 206.891L70.8039 207.555L71.5295 208.743C72.0485 209.374 72.5645 209.913 73.2193 210.411L73.5065 209.829L74.1347 208.922L74.9281 208.098L75.8893 207.393L77.0024 206.83L78.253 206.414L79.2182 206.221C80.3086 206.098 81.3869 206.05 82.4734 205.989L83.717 205.806L85.7884 205.166L87.6107 208.184L88.1472 208.929L88.7033 209.576L89.2843 210.127L89.9089 210.586L90.6082 210.959L92.0629 211.433L93.3349 211.704C95.0867 211.984 96.7988 212.066 98.565 211.947C98.0082 210.889 97.6528 209.773 97.3772 208.619L97.2436 207.756L97.1989 206.873L97.2594 205.975L97.4453 205.075L97.7784 204.194L98.2739 203.354L98.9315 202.594Z" fill="#222D78"/>
</svg>

<svg width="177" height="212" viewBox="0 0 177 212" fill="none" xmlns="http://www.w3.org/2000/svg"><path opacity=".03" fill-rule="evenodd" clip-rule="evenodd" d="M83.909 16.583l8.953-2.251c.692-.103 1.33-.176 2.022-.183l.73.11.717.284.614.416 1.021 1.063c.668.958 1.24 1.905 1.774 2.937.75 1.551 1.369 3.132 1.941 4.751.212.599.422 1.199.632 1.79.267 1.053.416 2.025.47 3.102a22.864 22.864 0 01-.259 3.491c-.503 3.029-1.293 6.005-1.935 8.997a81.85 81.85 0 00-.787 4.282c-1.474-.61-4.389-.868-6.893-.82.207-2.294-.284-4.666-.495-7a52.23 52.23 0 00-.509-3.455 46.846 46.846 0 00-1.339-5.072 46.79 46.79 0 00-2.016-4.887 48.55 48.55 0 00-2.677-4.653l-1.964-2.902zM49.716 146.238c-1.933-4.33 5.165-8.836 1.67-10.456-13.471-6.472 12.676-3.394 16.006.674-10.04-4.991-15.423 10.751-15.791 14.606.052-1.711-1.549-4.071-1.885-4.824zm-14.725-36.384c1.547 5.176 2.933 7.111 6.803 11.96 4.89 6.126 9.281 7.39 14.254 8.889 2.123.64 10.277 2.014 15.656 5.04-2.022-1.828-6.224-4.092-11.591-6.62-6.078-2.864-10.862-6.379-15.312-12.925-3.921-6.847-4.59-15.643-7.919-24.58-2.843.169-1.904 10.745-1.89 18.236zm63.94 92.74l.792-.642 1.065-.637c1.303-.631 2.639-1.167 3.966-1.759l.833-.436.742-.488.992-.913.597-.754c1.005-1.502 1.594-3.063 2.059-4.8.208-.855.378-1.729.554-2.6l2.243-.846c.555-.288 1.046-.59 1.563-.955l1.008-.836c.734-.69 1.396-1.43 2.063-2.192a59.05 59.05 0 004.761-6.65 62.305 62.305 0 001.53-2.796c1.098-2.282 2.205-4.652 2.634-7.168l.066-.862-.106-1.734-.389-1.759-.621-1.784-.883-2.079 2.674-2.506c.444-.65.796-1.274 1.11-2.002.264-.765.422-1.483.541-2.288l-.029-1.763a26.039 26.039 0 00-.418-2.687c-.513-2.052-1.191-4.056-1.827-6.077l8.934 2.699a1605.819 1605.819 0 01-3.798-9.828c-.549-1.448-1.047-2.876-1.405-4.385-.163-.813-.269-1.6-.322-2.434-.041-2.808.79-5.585 1.534-8.285.307-1.117.594-2.244.861-3.379a28.704 28.704 0 001.585-1.965 27.102 27.102 0 001.749-3.009c1.406-2.986 2.461-6.13 3.254-9.33a32.48 32.48 0 00.756-4.554l.091-1.318c1.702-1.523 3.47-2.988 5.14-4.552l1.875-3.644 1.573-4.08.219-1.419.11-2.277 3.671-.602 3.078-.875 2.898-1.242a36.114 36.114 0 002.699-1.59l1.679-1.243c.981-.827 1.908-1.668 2.765-2.635l.944-1.11c2.216-2.69 4.275-5.545 6.001-8.577a65.08 65.08 0 001.976-3.903 47.153 47.153 0 001.525-3.999l.55-2.031c.382-1.825.687-3.71.588-5.585-.183-2.016-.748-3.915-1.339-5.85-2.422.937-4.867 1.827-7.222 2.89-2.233 1.024-4.446 2.074-6.727 2.976a39.22 39.22 0 01-4.634 1.417l-1.019.204c-.995.124-1.964.211-2.961.259l-1.912-.017a43.094 43.094 0 01-2.917-.284c-2.302-.413-4.143.04-6.43.59l-3.425.896c.247-1.642.523-3.28.693-4.934.142-1.704.165-3.38.085-5.092a43.728 43.728 0 00-.639-5.078 52.073 52.073 0 00-1.498-5.74 74.652 74.652 0 00-1.014-2.818c-1.32-3.33-2.959-6.55-4.829-9.618-2.252-3.602-5.281-6.648-8.612-9.295a51.966 51.966 0 00-4.526-3.089c-8.77-5.123-13.522-6.052-22.963-3.411l-2.526.983-1.195.586-1.14.648-1.082.713-1.012.78-.948.852-.872.919c-.606.754-1.224 1.507-1.66 2.369-.836 1.808-1.441 3.749-2.103 5.614-1.254-1.122-2.479-2.273-3.815-3.312A35.532 35.532 0 0074.785 9.1c-1.863-.98-3.809-1.922-5.799-2.64A101.298 101.298 0 0063.5 4.71a91.944 91.944 0 00-9.023-1.676c-.701-.092-1.404-.175-2.113-.258-2.826-.204-5.66-.358-8.5-.274A87.542 87.542 0 0037.264 3C26.862 4.31 20.461 6.973 13.291 15.074c9.283-1.866 17.433-.655 26.337 1.635a53.748 53.748 0 015.944 2.42l.802.4c5.027 3.123 9.58 6.684 9.732 13.27.352 2.837-.887 4.506-2.52 9.221-.286.864-.53 1.712-.74 2.592l-.347 1.92-2.758 1.145c-.887.449-1.738.923-2.592 1.44-1.138.743-2.225 1.536-3.317 2.345-.987-.439-1.973-.88-2.976-1.295a46.04 46.04 0 00-6.668-2.107c-2.512-.538-5.055-.886-7.636-.845-.648.05-1.291.106-1.934.246-.785.167-1.575.352-2.36.534l-1.574-.144-1.441-.275-1.471-.401-1.495-.515-1.504-.607-2.964-1.44-2.781-1.657-1.273-.882-1.17-.897-1.052-.917-.917-.929-.461-.58c-.605.524-1.099 1.163-1.545 1.822-6.825 13.744.854 29.336 10.163 38.563a147.762 147.762 0 005.878 5.628c2.818 2.535 5.71 5.027 8.866 7.132l1.643 1.028-.098 11.953.153 4.038a31.066 31.066 0 01-.298 2.873c-.391 2.231-1.01 4.362-1.69 6.513l-.411 1.288c-1.169 3.308-2.682 6.477-4.032 9.711a80.436 80.436 0 00-1.518 4.149l-.748 2.781-.263 1.379-.177 1.361-.082 1.344.023 1.316.133 1.295.255 1.265.385 1.241.519 1.207c2.05 3.308 3.765 4.042 7.562 5.186-1.165 2.641-2.87 5.061-5.11 7.279 3.183.27 6.376.635 9.565.717a26.089 26.089 0 002.505-.135l.785-.129 2.562-.618.745 2.593.194.955.11.944-.008 1.824c-.097.775-.214 1.497-.419 2.246a77.788 77.788 0 003.136-2.093 39.783 39.783 0 003.115-2.565l3.044-3.252c.764 1.106 1.47 2.248 2.372 3.24.402.387.797.729 1.235 1.065 3.836 2.683 10.004 6.63 14.105 8.588-.908 1.35-1.24 1.295-2.046 2.706a9.892 9.892 0 00-.804 2.072c-.236 1.059-.286 2.021-.23 3.098.072.823.185 1.633.332 2.443.197.62.232 1.174.224 1.812-.065.735-.207 1.384-.385 2.099l-1.541 1.673a21.156 21.156 0 00-1.305 2.171c-.343.77-.622 1.512-.873 2.312a22.34 22.34 0 00-.461 2.416l-.106 1.668c.006 1.602.067 3.299.483 4.848.552 1.865 1.25 3.663 2.34 5.3a18.753 18.753 0 011.596-4.014l.876-1.272c.439-.496.867-.92 1.377-1.345l.843-.585 4.561-2.85-1.383 5.563-.148 1.014-.04.926.056.85.138.783.214.72.277.664.725 1.188c.52.631 1.035 1.17 1.69 1.668l.288-.582.628-.907.793-.824.961-.705 1.113-.563 1.251-.416.965-.193c1.09-.123 2.169-.171 3.255-.232l1.244-.183 2.071-.64 1.823 3.018.536.745.556.647.581.551.625.459.7.373 1.454.474 1.272.271c1.752.28 3.464.362 5.23.243-.557-1.058-.912-2.174-1.188-3.328l-.133-.863-.045-.883.06-.898.186-.9.333-.881.496-.84.657-.76z" fill="#222D78"/></svg>
